X:213
T:Valse des b\'eb\'es
S:Laurence Beaudry
Z:robin.beech@mcgill.ca
M:3/4
L:1/4
K:D
F3 | G2B | Af&gt;f | fdA | Ge&gt;e | ecA | Fd&gt;d | dAG |
F3 | G2B | Af&gt;f | fdA | Ge&gt;e | B2c | df/a/f/ |1 d3 :|2 d2- d/a/ |:
b3/a/f/d/ | A3/d/B/d/ | c2-c/a/ | b3/a/g/e/ | B3/c/B/A/ | f2- f/a/ |
b3/a/f/d/ | A3/d/B/d/ | c2-c/a/ | b2a | gBc | d3/c/d/e/ |1 d2- d/a/ :|2 d3 |]

